X:1
T:Title
%%score { ( 1 3 ) | ( 2 4 ) }
L:1/8
Q:1/4=100
M:4/4
K:G
V:1 treble nm="Grand Piano"
V:3 treble 
V:2 bass 
V:4 bass 
V:1
 [DGB]4 [EGc]2 [DGB]2 | [DEB]3 [CEA] [CEA]4 | [B,DG]4 [A,DF]2 [G,DG]2 | [^CB]3 [CA] [DA]4 | %4
w: W.~H.~Doane * *||||
 [DGB]4 [EGc]2 [DGB]2 | [DEB]3 [CEA] [CEA]4 | [B,DG]4 [DGB]2 [CDA]2 | [B,DG]6 z2 | A4 z4 | %9
w: |||||
 [DG]3 A B4 | B4 d2 B2 | [^CGB]3 [CGA] [DFA]4 | [DGB]4 [EGc]2 [DGB]2 | [DEB]3 [CEA] [CEA]4 | %14
w: |||||
 [B,DG]4 [DGB]2 [CDA]2 | [B,DG]6 z2 |] %16
w: ||
V:2
 G,4 G,2 G,2 | C,3 C, C,4 | D,4 D,2 B,,2 | [A,,E,]3 [A,,G,] [D,F,]4 | G,,4 G,,2 G,,2 | C,3 C, C,4 | %6
 D,4 D,2 D,2 | G,,6 z2 | [D,D]4 [D,B,D]2 [C,A,]2 | [B,,G,]3 [D,F,D] [G,D]4 | %10
 [G,DG]4 [B,DG]2 [G,DG]2 | E,3 E, D,4 | G,4 G,2 G,2 | C,3 C, C,4 | D,4 D,2 D,2 | G,,6 z2 |] %16
V:3
 x8 | x8 | x8 | x8 | x8 | x8 | x8 | x8 | z2 C2 G2 [DF]2 | x8 | x8 | x8 | x8 | x8 | x8 | x8 |] %16
V:4
 x8 | x8 | x8 | x8 | x8 | x8 | x8 | x8 | F,2 z2 z4 | x8 | x8 | x8 | x8 | x8 | x8 | x8 |] %16

